app/dist/common/images/meiragtx.svg

<svg height="18" viewBox="0 0 18 18" width="18" xmlns="http://www.w3.org/2000/svg"><path d="m0 0h18v18h-18z" fill="#f0f3fa"/><g fill="#5167c4"><path d="m9 3.76-4.81 2.64v5.22l4.81 2.62 4.81-2.63v-5.22zm5.5 2.24-5.5-3-5.5 3v6l5.5 3 5.5-3z" fill-rule="evenodd"/><path d="m8.69 4.42-4.09 2.21v.05l1.7 1.82 2.39-4.09zm-4.09 2.43v4.45l2.4-.63zm.02 4.54 4.28 2.32.78-2.32zm4.36 2.36.02.01 4.4-2.38v-.12l-1.8-1.66zm4.42-2.64v-4.48l-.11-.06-2.51.58zm-.27-4.63h-4.94l.75-2.2.06-.03z"/></g></svg>

<!-- by TradingView --><svg xmlns="http://www.w3.org/2000/svg" width="18" height="18" viewBox="0 0 18 18"><path fill="#F0F3FA" d="M0 0h18v18H0z"/><path fill-rule="evenodd" d="M9 3.76L4.19 6.4v5.22L9 14.24l4.81-2.63V6.39L9 3.76zM14.5 6L9 3 3.5 6v6L9 15l5.5-3V6z" fill="#5167C4"/><path d="M8.69 4.42L4.6 6.63v.05L6.3 8.5l2.39-4.09zM4.6 6.85v4.45l2.4-.63-2.4-3.82zm.02 4.54l4.28 2.32.78-2.32H4.62zm4.36 2.36l.02.01 4.4-2.38v-.12L11.6 9.6l-2.62 4.15zm4.42-2.64V6.63l-.11-.06-2.51.58 2.62 3.96zm-.27-4.63H8.19l.75-2.2.06-.03 4.13 2.23z" fill="#5167C4"/></svg>
